**kern	**silbe	**kern	**silbe	**harmony	**chordsym	**phrase	**timestamp	**leadinstrument
*ICvox	*	*ICvox	*	*M4/4	*M4/4	*	*	*
*	*	*	*	*E:	*E:	*	*	*
=1	=1	=1	=1	=1	=1	=1	=1	=1
*E:	*	*E:	*	*	*	*	*	*
*M4/4	*	*M4/4	*	*	*	*	*	*
*clefF4	*	*clefC3	*	*	*	*	*	*
1r	.	2r	.	1r;	r	.	0	r
.	.	8G# B	Ooh	.	.	.	.	.
.	.	8A c	_	.	.	.	.	.
.	.	8B d	_	.	.	.	.	.
.	.	[8c [e	_	.	.	.	.	.
=2	=2	=2	=2	=2	=2	=2	=2	=2
*	*	*	*	*>A_intro	*>A_intro	*>A_intro	*>A_intro	*>A_intro
1r	.	4.c] e]	_	4EM	E:maj (E G# B)	newline	0.372	r
.	.	.	.	4F#mm	F#:min7 (F# A C# E)	.	.	r
.	.	[8B [d	_	.	.	.	.	.
.	.	4.B] d]	_	2EM	E:maj (G# E B)	.	.	r
.	.	[8A [c	_	.	.	.	.	.
=3	=3	=3	=3	=3	=3	=3	=3	=3
1r	.	2A] c]	_	1CM	C:maj (C E G)	newline	2.693	r
.	.	4.F# A	_	.	.	.	.	.
.	.	[8G# [B	_	.	.	.	.	.
=4	=4	=4	=4	=4	=4	=4	=4	=4
1r	.	1G#] B]	_	1DM	D:maj (D F# A)	.	.	r
=5	=5	=5	=5	=5	=5	=5	=5	=5
1r	.	4r	.	1EM	E:maj (E G# B)	.	.	r
.	.	8r	.	.	.	.	.	.
.	.	8r	.	.	.	.	.	.
.	.	8G# B	Ooh	.	.	.	.	.
.	.	8A c	_	.	.	.	.	.
.	.	8B d	_	.	.	.	.	.
.	.	[8c [e	_	.	.	.	.	.
=6	=6	=6	=6	=6	=6	=6	=6	=6
1r	.	4.c] e]	_	4EM	E:maj (E G# B)	.	.	r
.	.	.	.	4F#mm	F#:min7 (F# A C# E)	.	.	r
.	.	[8B [d	_	.	.	.	.	.
.	.	4.B] d]	_	2EM	E:maj (G# E B)	.	.	r
.	.	[8A [c	_	.	.	.	.	.
=7	=7	=7	=7	=7	=7	=7	=7	=7
1r	.	2A] c]	_	1CM	C:maj (C E G)	newline	11.867	r
.	.	4.F# A	_	.	.	.	.	.
.	.	[8G# [B	_	.	.	.	.	.
=8	=8	=8	=8	=8	=8	=8	=8	=8
8Aq	_	.	.	.	.	.	.	.
[2B	How!	1G#] B]	_	1DM	D:maj (D F# A)	.	.	r
8B]	_	.	.	.	.	.	.	.
8r	_	.	.	.	.	.	.	.
4r	.	.	.	.	.	.	.	.
=9	=9	=9	=9	=9	=9	=9	=9	=9
*	*	*	*	*>B_verse	*>B_verse	*>B_verse	*>B_verse	*>B_verse
2r	.	1r	.	1EM	E:maj (E G# B)	newline	16.453	voice
8.B	How	.	.	.	.	.	.	.
[16A	can	.	.	.	.	.	.	.
8A]	_	.	.	.	.	.	.	.
8G#	it	.	.	.	.	.	.	.
=10	=10	=10	=10	=10	=10	=10	=10	=10
8F#	_	1r	.	1C#mm	C#:min7 (C# E G# B)	.	.	voice
4F#	be?	.	.	.	.	.	.	.
8r	_	.	.	.	.	.	.	.
4.r	.	.	.	.	.	.	.	.
16F#	That	.	.	.	.	.	.	.
16G#	a	.	.	.	.	.	.	.
=11	=11	=11	=11	=11	=11	=11	=11	=11
4A	love,	1r	.	1DM	D:maj (D F# A)	.	.	voice
4r	_	.	.	.	.	.	.	.
8G#q	_	.	.	.	.	.	.	.
8.A	carved	.	.	.	.	.	.	.
[16G#	out	.	.	.	.	.	.	.
8G#]	_	.	.	.	.	.	.	.
8F#	of	.	.	.	.	.	.	.
=12	=12	=12	=12	=12	=12	=12	=12	=12
8.G#	ca-	1r	.	1Bm	B:min (B D F#)	.	.	voice
[16E	-ring,	.	.	.	.	.	.	.
8E]	_	.	.	.	.	.	.	.
8r	_	.	.	.	.	.	.	.
8E	fa-	.	.	.	.	.	.	.
8F#	-shioned	.	.	.	.	.	.	.
8G#	by	.	.	.	.	.	.	.
8Aq	_	.	.	.	.	.	.	.
[8B	fate,	.	.	.	.	.	.	.
=13	=13	=13	=13	=13	=13	=13	=13	=13
8B]	_	1r	.	1EM	E:maj (E G# B)	newline	25.529	voice
4r	_	.	.	.	.	.	.	.
8BB	could	.	.	.	.	.	.	.
8.B	suf-	.	.	.	.	.	.	.
[16A	-fer	.	.	.	.	.	.	.
8A]	_	.	.	.	.	.	.	.
8G#	so	.	.	.	.	.	.	.
=14	=14	=14	=14	=14	=14	=14	=14	=14
8F#	_	1r	.	1C#mm	C#:min7 (C# E G# B)	.	.	voice
4F#	hard?	.	.	.	.	.	.	.
8r	_	.	.	.	.	.	.	.
4r	.	.	.	.	.	.	.	.
8r	.	.	.	.	.	.	.	.
16F#	From	.	.	.	.	.	.	.
16G#	the	.	.	.	.	.	.	.
=15	=15	=15	=15	=15	=15	=15	=15	=15
4A	games	1r	.	1DM	D:maj (D F# A)	.	.	voice
4r	.	.	.	.	.	.	.	.
8G#q	_	.	.	.	.	.	.	.
8.A	we	.	.	.	.	.	.	.
[16G#	play	.	.	.	.	.	.	.
8G#]	_	.	.	.	.	.	.	.
8F#	too	.	.	.	.	.	.	.
=16	=16	=16	=16	=16	=16	=16	=16	=16
8.G#	of-	1r	.	1Bm	B:min (B D F#)	.	.	voice
[16E	-ten?	.	.	.	.	.	.	.
8E]	_	.	.	.	.	.	.	.
8r	_	.	.	.	.	.	.	.
2r	.	.	.	.	.	.	.	.
=17	=17	=17	=17	=17	=17	=17	=17	=17
4r	.	1r	.	1EM	E:maj (E G# B)	newline	34.723	voice
8r	.	.	.	.	.	.	.	.
8BB	But	.	.	.	.	.	.	.
8Aq	_	.	.	.	.	.	.	.
8.B	ma-	.	.	.	.	.	.	.
[16A	-king	.	.	.	.	.	.	.
8A]	_	.	.	.	.	.	.	.
8G#	mis	.	.	.	.	.	.	.
=18	=18	=18	=18	=18	=18	=18	=18	=18
8F#	_	1r	.	1C#mm	C#:min7 (C# E G# B)	.	.	voice
4F#	takes	.	.	.	.	.	.	.
8r	.	.	.	.	.	.	.	.
4r	.	.	.	.	.	.	.	.
8r	.	.	.	.	.	.	.	.
16F#	is	.	.	.	.	.	.	.
16G#	a	.	.	.	.	.	.	.
=19	=19	=19	=19	=19	=19	=19	=19	=19
4A	part	1r	.	1DM	D:maj (D F# A)	.	.	voice
8r	.	.	.	.	.	.	.	.
8BB	of	.	.	.	.	.	.	.
8G#q	_	.	.	.	.	.	.	.
8.A	life's	.	.	.	.	.	.	.
[16G#	im	.	.	.	.	.	.	.
8G#]	_	.	.	.	.	.	.	.
8F#	per-	.	.	.	.	.	.	.
=20	=20	=20	=20	=20	=20	=20	=20	=20
8.G#	-fec-	1r	.	1Bm	B:min (B D F#)	.	.	voice
[16B	-tions,	.	.	.	.	.	.	.
8B]	_	.	.	.	.	.	.	.
8r	_	.	.	.	.	.	.	.
8E	born	.	.	.	.	.	.	.
8F#	of	.	.	.	.	.	.	.
8G#	the	.	.	.	.	.	.	.
16B	years	.	.	.	.	.	.	.
16c#	_	.	.	.	.	.	.	.
=21	=21	=21	=21	=21	=21	=21	=21	=21
4B	_	1r	.	1EM	E:maj (E G# B)	newline	43.848	voice
4r	.	.	.	.	.	.	.	.
8Aq	_	.	.	.	.	.	.	.
8.B	is	.	.	.	.	.	.	.
[16A	it	.	.	.	.	.	.	.
8A]	_	.	.	.	.	.	.	.
8G#	so	.	.	.	.	.	.	.
=22	=22	=22	=22	=22	=22	=22	=22	=22
8F#	_	1r	.	1C#mm	C#:min7 (C# E G# B)	.	.	voice
4F#	wrong?	.	.	.	.	.	.	.
8r	_	.	.	.	.	.	.	.
4r	.	.	.	.	.	.	.	.
8r	.	.	.	.	.	.	.	.
16F#	To	.	.	.	.	.	.	.
16G#	be	.	.	.	.	.	.	.
=23	=23	=23	=23	=23	=23	=23	=23	=23
4A	hu-	1r	.	1DM	D:maj (D F# A)	.	.	voice
8G#	-man	.	.	.	.	.	.	.
8F#	_	.	.	.	.	.	.	.
4F#	af-	.	.	.	.	.	.	.
8G#	-ter	.	.	.	.	.	.	.
8E	_	.	.	.	.	.	.	.
=24	=24	=24	=24	=24	=24	=24	=24	=24
1E	all?	[1g#	Ha,	1Bm	B:min (B D F#)	.	.	voice
=25	=25	=25	=25	=25	=25	=25	=25	=25
1r	.	4g#]	_	1EM	E:maj (E G# B)	newline	53.01	voice
.	.	4g#	drawn	.	.	.	.	.
.	.	8g#	in-	.	.	.	.	.
.	.	8f#	-to	.	.	.	.	.
.	.	8e	the	.	.	.	.	.
.	.	[8g	stream	.	.	.	.	.
=26	=26	=26	=26	=26	=26	=26	=26	=26
1r	.	2g]	_	4EM	E:maj (E G# B)	.	.	voice
.	.	.	.	4F#mm	F#:min7 (F# A C# E)	.	.	voice
.	.	4r	.	2EM	E:maj (G# E B)	.	.	voice
.	.	8aq	_	.	.	.	.	.
.	.	8b	of	.	.	.	.	.
.	.	[8a	un	.	.	.	.	.
=27	=27	=27	=27	=27	=27	=27	=27	=27
*	*	*	*	*>A_chorus	*>A_chorus	*>A_chorus	*>A_chorus	*>A_chorus
1r	.	4a]	_	1CM	C:maj (C E G)	newline	57.616	voice
.	.	8eq	_	.	.	.	.	.
.	.	8f#	de-	.	.	.	.	.
.	.	[8e	-fined	.	.	.	.	.
.	.	4e]	_	.	.	.	.	.
.	.	8Bq	_	.	.	.	.	.
.	.	8c#	il-	.	.	.	.	.
.	.	[8B	-lu	.	.	.	.	.
=28	=28	=28	=28	=28	=28	=28	=28	=28
1r	.	4.B]	_	1DM	D:maj (D F# A)	.	.	voice
.	.	8f#q	_	.	.	.	.	.
.	.	[8g#	sion,	.	.	.	.	.
.	.	2g#]	_	.	.	.	.	.
=29	=29	=29	=29	=29	=29	=29	=29	=29
1r	.	4r	_	1EM	E:maj (E G# B)	.	.	voice
.	.	4g#	those	.	.	.	.	.
.	.	8g#	di-	.	.	.	.	.
.	.	8f#	-a-	.	.	.	.	.
.	.	8e	-mond	.	.	.	.	.
.	.	[8g	dreams,	.	.	.	.	.
=30	=30	=30	=30	=30	=30	=30	=30	=30
1r	.	2g]	_	4EM	E:maj (E G# B)	.	.	voice
.	.	.	.	4F#mm	F#:min7 (F# A C# E)	.	.	voice
.	.	4r	_	2EM	E:maj (G# E B)	.	.	voice
.	.	8aq	_	.	.	.	.	.
.	.	8b	they	.	.	.	.	.
.	.	[8a	can't	.	.	.	.	.
=31	=31	=31	=31	=31	=31	=31	=31	=31
1r	.	4a]	_	1CM	C:maj (C E G)	newline	66.773	voice
.	.	8eq	_	.	.	.	.	.
.	.	8f#	dis-	.	.	.	.	.
.	.	[8e	-guise	.	.	.	.	.
.	.	4e]	_	.	.	.	.	.
.	.	8Bq	_	.	.	.	.	.
.	.	8c#	the	.	.	.	.	.
.	.	[8B	truth!	.	.	.	.	.
=32	=32	=32	=32	=32	=32	=32	=32	=32
1r	.	1B]	_	1DM	D:maj (D F# A)	.	.	voice
=33	=33	=33	=33	=33	=33	=33	=33	=33
8r	.	1r	.	1EM	E:maj (E G# B)	.	.	voice
8B	That	.	.	.	.	.	.	.
8B	there	.	.	.	.	.	.	.
8e	is	.	.	.	.	.	.	.
8B	some-	.	.	.	.	.	.	.
8A	-thing	.	.	.	.	.	.	.
8G	a-	.	.	.	.	.	.	.
8A	-bout	.	.	.	.	.	.	.
=34	=34	=34	=34	=34	=34	=34	=34	=34
8G	_	1r	.	4EM	E:maj (E G# B)	.	.	voice
4G	you,	.	.	.	.	.	.	.
.	.	.	.	4F#mm	F#:min7 (F# A C# E)	.	.	voice
8r	_	.	.	.	.	.	.	.
4r	.	.	.	2EM	E:maj (G# E B)	.	.	voice
8r	.	.	.	.	.	.	.	.
8Aq	_	.	.	.	.	.	.	.
8B	ba	.	.	.	.	.	.	.
=35	=35	=35	=35	=35	=35	=35	=35	=35
8A	_	1r	.	1CM	C:maj (C E G)	newline	75.866	voice
4A	by,	.	.	.	.	.	.	.
8r	_	.	.	.	.	.	.	.
4r	.	.	.	.	.	.	.	.
8Gq	_	.	.	.	.	.	.	.
8A	so	.	.	.	.	.	.	.
[8B	right,	.	.	.	.	.	.	.
=36	=36	=36	=36	=36	=36	=36	=36	=36
2.B_	_	1r	.	1DM	D:maj (D F# A)	.	.	voice
8B]	_	.	.	.	.	.	.	.
8r	_	.	.	.	.	.	.	.
=37	=37	=37	=37	=37	=37	=37	=37	=37
8r	.	1r	.	1EM	E:maj (E G# B)	.	.	voice
8B	I	.	.	.	.	.	.	.
8B	would-	.	.	.	.	.	.	.
8B	-n't	.	.	.	.	.	.	.
8B	be	.	.	.	.	.	.	.
8A	_	.	.	.	.	.	.	.
8G	with-	.	.	.	.	.	.	.
8A	-out	.	.	.	.	.	.	.
=38	=38	=38	=38	=38	=38	=38	=38	=38
8G	_	1r	.	4EM	E:maj (E G# B)	.	.	voice
4G	you,	.	.	.	.	.	.	.
.	.	.	.	4F#mm	F#:min7 (F# A C# E)	.	.	voice
8r	_	.	.	.	.	.	.	.
8B	ba	.	.	2EM	E:maj (G# E B)	.	.	voice
8c	_	.	.	.	.	.	.	.
8B	_	.	.	.	.	.	.	.
8A	by,	.	.	.	.	.	.	.
=39	=39	=39	=39	=39	=39	=39	=39	=39
2r	_	1r	.	1CM	C:maj (C E G)	newline	85.025	->
4r	.	.	.	.	.	.	.	.
8c#	to-	.	.	.	.	.	.	.
[8B	-night!	.	.	.	.	.	.	.
=40	=40	=40	=40	=40	=40	=40	=40	=40
2.B]	_	1r	.	1DM	D:maj (D F# A)	.	.	->
4r	_	.	.	.	.	.	.	.
=41	=41	=41	=41	=41	=41	=41	=41	=41
*	*	*	*	*>B_verse	*>B_verse	*>B_verse	*>B_verse	*>B_verse
4r	.	1r	.	1EM	E:maj (E G# B)	newline	89.635	->
8r	.	.	.	.	.	.	.	.
8BB	If	.	.	.	.	.	.	.
8.B	e-	.	.	.	.	.	.	.
[16A	-ver	.	.	.	.	.	.	.
8A]	_	.	.	.	.	.	.	.
8G#	our	.	.	.	.	.	.	.
=42	=42	=42	=42	=42	=42	=42	=42	=42
8F#	_	1r	.	1C#mm	C#:min7 (C# E G# B)	.	.	->
4F#	love,	.	.	.	.	.	.	.
8r	_	.	.	.	.	.	.	.
8.r	.	.	.	.	.	.	.	.
[16F#	was	.	.	.	.	.	.	.
16F#]	_	.	.	.	.	.	.	.
8G#	con	.	.	.	.	.	.	.
16G#q	_	.	.	.	.	.	.	.
[16A	cealed,	.	.	.	.	.	.	.
=43	=43	=43	=43	=43	=43	=43	=43	=43
4A]	_	1r	.	1DM	D:maj (D F# A)	.	.	->
4r	_	.	.	.	.	.	.	.
8G#q	_	.	.	.	.	.	.	.
8.A	no	.	.	.	.	.	.	.
[16G#	one	.	.	.	.	.	.	.
8G#]	_	.	.	.	.	.	.	.
8F#	can	.	.	.	.	.	.	.
=44	=44	=44	=44	=44	=44	=44	=44	=44
8.G#	say	1r	.	1Bm	B:min (B D F#)	.	.	->
[16B	that	.	.	.	.	.	.	.
8B]	_	.	.	.	.	.	.	.
8r	.	.	.	.	.	.	.	.
8E	we	.	.	.	.	.	.	.
8F#	did-	.	.	.	.	.	.	.
8G#	-n't	.	.	.	.	.	.	.
16B	feel	.	.	.	.	.	.	.
16c#	_	.	.	.	.	.	.	.
=45	=45	=45	=45	=45	=45	=45	=45	=45
4B	_	1r	.	1EM	E:maj (E G# B)	newline	98.74	->
4r	.	.	.	.	.	.	.	.
8Aq	_	.	.	.	.	.	.	.
8.B	a	.	.	.	.	.	.	.
[16A	mil	.	.	.	.	.	.	.
8A]	_	.	.	.	.	.	.	.
8G#	lion	.	.	.	.	.	.	.
=46	=46	=46	=46	=46	=46	=46	=46	=46
8F#	_	1r	.	1C#mm	C#:min7 (C# E G# B)	.	.	->
4F#	things,	.	.	.	.	.	.	.
8r	_	.	.	.	.	.	.	.
4r	.	.	.	.	.	.	.	.
8r	.	.	.	.	.	.	.	.
16F#	and	.	.	.	.	.	.	.
16G#	a	.	.	.	.	.	.	.
=47	=47	=47	=47	=47	=47	=47	=47	=47
4A	per-	1r	.	1DM	D:maj (D F# A)	.	.	->
8G#	-fect	.	.	.	.	.	.	.
8F#	_	.	.	.	.	.	.	.
4F#	dream	.	.	.	.	.	.	.
8G#	of	.	.	.	.	.	.	.
8E	_	.	.	.	.	.	.	.
=48	=48	=48	=48	=48	=48	=48	=48	=48
2E	life!	1r	.	1Bm	B:min (B D F#)	.	.	->
4r	_	.	.	.	.	.	.	.
8r	.	.	.	.	.	.	.	.
[8B	Gone!	.	.	.	.	.	.	.
=49	=49	=49	=49	=49	=49	=49	=49	=49
4B]	_	4r	.	1EM	E:maj (E G# B)	newline	107.875	->
4r	_	8r	.	.	.	.	.	.
.	.	8r	.	.	.	.	.	.
8.B	Fra-	8.e	Fra-	.	.	.	.	.
[16A	-gile,	[16c#	-gile,	.	.	.	.	.
8A]	_	8c#]	_	.	.	.	.	.
8G#	but	8B	but	.	.	.	.	.
=50	=50	=50	=50	=50	=50	=50	=50	=50
8F#	_	8A	_	1C#mm	C#:min7 (C# E G# B)	.	.	->
4F#	free,	4A	free	.	.	.	.	.
8r	_	8r	.	.	.	.	.	.
4r	.	2r	.	.	.	.	.	.
8r	.	.	.	.	.	.	.	.
16F#	we	.	.	.	.	.	.	.
16G#	re-	.	.	.	.	.	.	.
=51	=51	=51	=51	=51	=51	=51	=51	=51
4A	-main,	1r	.	1DM	D:maj (D F# A)	.	.	->
4r	.	.	.	.	.	.	.	.
8G#q	_	.	.	.	.	.	.	.
8.A	ten-	.	.	.	.	.	.	.
[16G#	-der	.	.	.	.	.	.	.
8G#]	_	.	.	.	.	.	.	.
8F#	to-	.	.	.	.	.	.	.
=52	=52	=52	=52	=52	=52	=52	=52	=52
8.G#	-ge-	2r	.	1Bm	B:min (B D F#)	.	.	->
[16B	-ther,	.	.	.	.	.	.	.
16B]	_	.	.	.	.	.	.	.
16r	_	.	.	.	.	.	.	.
8BB	if	.	.	.	.	.	.	.
8E	not	8G#	not	.	.	.	.	.
8F#	so	8A	so	.	.	.	.	.
8G#	in	8B	in	.	.	.	.	.
16B	love,	[8e	love,	.	.	.	.	.
16c#	_	.	.	.	.	.	.	.
=53	=53	=53	=53	=53	=53	=53	=53	=53
4B	_	4e]	_	1EM	E:maj (E G# B)	newline	117.049	->
4r	_	4r	_	.	.	.	.	.
8Aq	_	8c#q	_	.	.	.	.	.
8.B	it's	8.e	it's	.	.	.	.	.
[16A	not	[16c#	not	.	.	.	.	.
8A]	_	8c#]	_	.	.	.	.	.
8G#	so	8B	so	.	.	.	.	.
=54	=54	=54	=54	=54	=54	=54	=54	=54
8F#	_	8A	_	1C#mm	C#:min7 (C# E G# B)	.	.	->
4F#	wrong,	4A	wrong	.	.	.	.	.
8r	_	8r	.	.	.	.	.	.
8r	.	2r	.	.	.	.	.	.
8E	we're	.	.	.	.	.	.	.
8F#	on-	.	.	.	.	.	.	.
8G#	-ly	.	.	.	.	.	.	.
=55	=55	=55	=55	=55	=55	=55	=55	=55
4A	hu-	1r	.	1DM	D:maj (D F# A)	.	.	->
8G#	-man	.	.	.	.	.	.	.
8F#	_	.	.	.	.	.	.	.
4F#	af-	.	.	.	.	.	.	.
8G#	-ter	.	.	.	.	.	.	.
8E	_	.	.	.	.	.	.	.
=56	=56	=56	=56	=56	=56	=56	=56	=56
[2.E	all!	[1e [g#	Ha,	1Bm	B:min (B D F#)	.	.	->
8E]	_	.	.	.	.	.	.	.
16F#	_	.	.	.	.	.	.	.
[16G#	_	.	.	.	.	.	.	.
=57	=57	=57	=57	=57	=57	=57	=57	=57
4G#]	_	4e] g#]	_	1EM	E:maj (E G# B)	newline	126.173	->
4r	_	4e g#	these	.	.	.	.	.
2r	.	8e g#	chan	.	.	.	.	.
.	.	8c# f#	_	.	.	.	.	.
.	.	8B e	ging	.	.	.	.	.
.	.	[8B [g	years,	.	.	.	.	.
=58	=58	=58	=58	=58	=58	=58	=58	=58
1r	.	2B] g]	_	4EM	E:maj (E G# B)	.	.	->
.	.	.	.	4F#mm	F#:min7 (F# A C# E)	.	.	->
.	.	4r	_	2EM	E:maj (G# E B)	.	.	->
.	.	8aq	_	.	.	.	.	.
.	.	8d b	they	.	.	.	.	.
.	.	[8d [a	add	.	.	.	.	.
=59	=59	=59	=59	=59	=59	=59	=59	=59
*	*	*	*	*>C_chorus	*>C_chorus	*>C_chorus	*>C_chorus	*>C_chorus
1r	.	4d] a]	_	1CM	C:maj (C E G)	newline	130.78	->
.	.	8eq	_	.	.	.	.	.
.	.	8A f#	to	.	.	.	.	.
.	.	8A [e	your	.	.	.	.	.
.	.	4A e]	_	.	.	.	.	.
.	.	8Bq	_	.	.	.	.	.
.	.	8A c#	con-	.	.	.	.	.
.	.	[8G# [B	-fu	.	.	.	.	.
=60	=60	=60	=60	=60	=60	=60	=60	=60
1r	.	4.G#] B]	_	1DM	D:maj (D F# A)	.	.	->
.	.	8Aq 8f#Q	_	.	.	.	.	.
.	.	[8B [g#	sion!	.	.	.	.	.
.	.	2B] g#]	_	.	.	.	.	.
=61	=61	=61	=61	=61	=61	=61	=61	=61
1r	.	8r	.	1EM	E:maj (E G# B)	.	.	->
.	.	8B g#	Oh-	.	.	.	.	.
.	.	8B g#	-ho,	.	.	.	.	.
.	.	8B a	you	.	.	.	.	.
.	.	8B g#	need	.	.	.	.	.
.	.	8B f#	_	.	.	.	.	.
.	.	8B e	to	.	.	.	.	.
.	.	[8B [g	hear	.	.	.	.	.
=62	=62	=62	=62	=62	=62	=62	=62	=62
1r	.	2B] g]	_	4EM	E:maj (E G# B)	.	.	->
.	.	.	.	4F#mm	F#:min7 (F# A C# E)	.	.	->
.	.	4r	.	2EM	E:maj (G# E B)	.	.	->
.	.	8aq	_	.	.	.	.	.
.	.	8d b	the	.	.	.	.	.
.	.	[8d [a	time	.	.	.	.	.
=63	=63	=63	=63	=63	=63	=63	=63	=63
1r	.	4d] a]	_	1CM	C:maj (C E G)	newline	139.967	->
.	.	8eq	_	.	.	.	.	.
.	.	8A f#	that	.	.	.	.	.
.	.	[8A [e	told	.	.	.	.	.
.	.	4A] e]	_	.	.	.	.	.
.	.	8Bq	_	.	.	.	.	.
.	.	8A c#	the	.	.	.	.	.
.	.	[8G# [B	truth!	.	.	.	.	.
=64	=64	=64	=64	=64	=64	=64	=64	=64
1r	.	1G#] B]	_	1DM	D:maj (D F# A)	.	.	->
=65	=65	=65	=65	=65	=65	=65	=65	=65
8r	.	2r	_	1EM	E:maj (E G# B)	.	.	->
8B	Be-	.	.	.	.	.	.	.
8B	-cause	.	.	.	.	.	.	.
8e	there's	.	.	.	.	.	.	.
8B	some-	8e g#	Some-	.	.	.	.	.
8A	-thing	8c# f#	-thing	.	.	.	.	.
8G	a-	8B e	a-	.	.	.	.	.
8A	-bout	[8B [g	-bout	.	.	.	.	.
=66	=66	=66	=66	=66	=66	=66	=66	=66
8G	_	2B] g]	_	4EM	E:maj (E G# B)	.	.	->
4G	you,	.	.	.	.	.	.	.
.	.	.	.	4F#mm	F#:min7 (F# A C# E)	.	.	->
8r	_	.	.	.	.	.	.	.
4r	.	4r	.	2EM	E:maj (G# E B)	.	.	->
.	.	8aq	_	.	.	.	.	.
8r	.	8d b	the	.	.	.	.	.
8Aq	_	.	.	.	.	.	.	.
8B	ba	[8d [a	way	.	.	.	.	.
=67	=67	=67	=67	=67	=67	=67	=67	=67
8A	_	4d] a]	_	1CM	C:maj (C E G)	newline	149.063	->
4A	by,	.	.	.	.	.	.	.
.	.	8eq	_	.	.	.	.	.
.	.	8A f#	you	.	.	.	.	.
8r	_	8A [e	all	.	.	.	.	.
4r	.	4A e]	_	.	.	.	.	.
8Gq	_	8Bq	_	.	.	.	.	.
8A	so	8A c#	sur-	.	.	.	.	.
[8B	right!	[8G# [B	-vive!	.	.	.	.	.
=68	=68	=68	=68	=68	=68	=68	=68	=68
2.B_	_	4.G#] B]	_	1DM	D:maj (D F# A)	.	.	->
.	.	8Aq 8f#Q	_	.	.	.	.	.
.	.	[8B [g#	_	.	.	.	.	.
.	.	2B] g#]	_	.	.	.	.	.
8B]	_	.	.	.	.	.	.	.
8r	_	.	.	.	.	.	.	.
=69	=69	=69	=69	=69	=69	=69	=69	=69
8r	.	2r	_	1EM	E:maj (E G# B)	.	.	->
8A#q	_	.	.	.	.	.	.	.
8B	I	.	.	.	.	.	.	.
8A#q	_	.	.	.	.	.	.	.
8B	could	.	.	.	.	.	.	.
8A#q	_	.	.	.	.	.	.	.
8B	n't	.	.	.	.	.	.	.
8B	live	8B g#	I	.	.	.	.	.
8A	_	8B f#	could-	.	.	.	.	.
8G	with-	8B e	-n't	.	.	.	.	.
8A	-out	[8B [g	live	.	.	.	.	.
=70	=70	=70	=70	=70	=70	=70	=70	=70
8G	_	2B] g]	_	4EM	E:maj (E G# B)	.	.	->
4G	you,	.	.	.	.	.	.	.
.	.	.	.	4F#mm	F#:min7 (F# A C# E)	.	.	->
8r	_	.	.	.	.	.	.	.
8B	ba	4r	.	2EM	E:maj (G# E B)	.	.	->
8c	_	.	.	.	.	.	.	.
.	.	8aq	_	.	.	.	.	.
8B	_	8d b	with-	.	.	.	.	.
8A	by,	[8d [a	-out	.	.	.	.	.
=71	=71	=71	=71	=71	=71	=71	=71	=71
2r	_	4d] a]	_	1CM	C:maj (C E G)	newline	158.224	voice
.	.	8eq	_	.	.	.	.	.
.	.	8A f#	you	.	.	.	.	.
.	.	[8A [e	here	.	.	.	.	.
4r	.	4A] e]	_	.	.	.	.	.
.	.	8Bq	_	.	.	.	.	.
8c#	so	8A c#	to-	.	.	.	.	.
[8B	right!	[8G# [B	-night!	.	.	.	.	.
=72	=72	=72	=72	=72	=72	=72	=72	=72
2B_	_	2G#_ B]	_	1DM	D:maj (D F# A)	.	.	voice
8B]	_	8G#]	_	.	.	.	.	.
8Aq	_	8F#q	_	.	.	.	.	.
8B	_	8G#	_	.	.	.	.	.
8Aq	_	8F#q	_	.	.	.	.	.
8B	_	8G#	_	.	.	.	.	.
8Aq	_	8F#q	_	.	.	.	.	.
16B	_	16G#	_	.	.	.	.	.
16A	_	16F#	_	.	.	.	.	.
=73	=73	=73	=73	=73	=73	=73	=73	=73
2G#	_	2E	_	1EM	E:maj (E G# B)	.	.	voice
2r	_	8G#	(Vocalizing)	.	.	.	.	.
.	.	8F#	_	.	.	.	.	.
.	.	8E	_	.	.	.	.	.
.	.	[8G	_	.	.	.	.	.
=74	=74	=74	=74	=74	=74	=74	=74	=74
1r	.	4G]	_	4EM	E:maj (E G# B)	.	.	voice
.	.	4r	.	4F#mm	F#:min7 (F# A C# E)	.	.	voice
.	.	2r	.	2EM	E:maj (G# E B)	.	.	voice
=75	=75	=75	=75	=75	=75	=75	=75	=75
*	*	*	*	*>A_solo	*>A_solo	*>A_solo	*>A_solo	*>A_solo
1r	.	1r	.	1CM	C:maj (C E G)	newline	167.333	guitar
=76	=76	=76	=76	=76	=76	=76	=76	=76
1r	.	1r	.	1DM	D:maj (D F# A)	.	.	guitar
=77	=77	=77	=77	=77	=77	=77	=77	=77
1r	.	1r	.	1EM	E:maj (E G# B)	.	.	guitar
=78	=78	=78	=78	=78	=78	=78	=78	=78
1r	.	1r	.	4EM	E:maj (E G# B)	.	.	guitar
.	.	.	.	4F#mm	F#:min7 (F# A C# E)	.	.	guitar
.	.	.	.	2EM	E:maj (G# E B)	.	.	guitar
=79	=79	=79	=79	=79	=79	=79	=79	=79
1r	.	1r	.	1CM	C:maj (C E G)	newline	176.542	guitar
=80	=80	=80	=80	=80	=80	=80	=80	=80
1r	.	1r	.	1DM	D:maj (D F# A)	.	.	guitar
=81	=81	=81	=81	=81	=81	=81	=81	=81
1r	.	2r	.	1EM	E:maj (E G# B)	.	.	guitar
.	.	8G# B	Ooh	.	.	.	.	.
.	.	8A c	_	.	.	.	.	.
.	.	8B d	_	.	.	.	.	.
.	.	[8c [e	_	.	.	.	.	.
=82	=82	=82	=82	=82	=82	=82	=82	=82
1r	.	4.c] e]	_	4EM	E:maj (E G# B)	.	.	guitar
.	.	.	.	4F#mm	F#:min7 (F# A C# E)	.	.	guitar
.	.	[8B [d	_	.	.	.	.	.
.	.	4.B] d]	_	2EM	E:maj (G# E B)	.	.	guitar
.	.	[8A [c	_	.	.	.	.	.
=83	=83	=83	=83	=83	=83	=83	=83	=83
1r	.	2A] c]	_	1CM	C:maj (C E G)	newline	185.656	guitar
.	.	4.F# A	_	.	.	.	.	.
.	.	[8G# [B	_	.	.	.	.	.
=84	=84	=84	=84	=84	=84	=84	=84	=84
1r	.	1G#] B]	_	1DM	D:maj (D F# A)	.	.	guitar
=85	=85	=85	=85	=85	=85	=85	=85	=85
1r	.	4r	.	1EM	E:maj (E G# B)	.	.	guitar
.	.	8r	.	.	.	.	.	.
.	.	8r	.	.	.	.	.	.
.	.	8G# B	Ooh	.	.	.	.	.
.	.	8A c	_	.	.	.	.	.
.	.	8B d	_	.	.	.	.	.
.	.	[8c [e	_	.	.	.	.	.
=86	=86	=86	=86	=86	=86	=86	=86	=86
1r	.	4.c] e]	_	4EM	E:maj (E G# B)	.	.	guitar
.	.	.	.	4F#mm	F#:min7 (F# A C# E)	.	.	guitar
.	.	[8B [d	_	.	.	.	.	.
.	.	4.B] d]	_	2EM	E:maj (G# E B)	.	.	guitar
.	.	[8A [c	_	.	.	.	.	.
=87	=87	=87	=87	=87	=87	=87	=87	=87
1r	.	2A] c]	_	1CM	C:maj (C E G)	newline	194.821	guitar
.	.	4.F# A	_	.	.	.	.	.
.	.	[8G# [B	_	.	.	.	.	.
=88	=88	=88	=88	=88	=88	=88	=88	=88
1r	.	1G#] B]	_	1DM	D:maj (D F# A)	.	.	guitar
=89	=89	=89	=89	=89	=89	=89	=89	=89
8r	.	4r	.	1EM	E:maj (E G# B)	.	.	guitar
8B	And	.	.	.	.	.	.	.
8B	now	8r	.	.	.	.	.	.
8B	there's	8r	.	.	.	.	.	.
8e	some-	8G# B	Ooh	.	.	.	.	.
8B	-thing	8A c	_	.	.	.	.	.
8e	a	8B d	_	.	.	.	.	.
8dq	_	.	.	.	.	.	.	.
[8e	bout	[8c [e	_	.	.	.	.	.
=90	=90	=90	=90	=90	=90	=90	=90	=90
8e]	_	4.c] e]	_	4EM	E:maj (E G# B)	.	.	guitar
4d	you,	.	.	.	.	.	.	.
.	.	.	.	4F#mm	F#:min7 (F# A C# E)	.	.	guitar
8r	_	[8B [d	_	.	.	.	.	.
8c	yeah	4.B] d]	_	2EM	E:maj (G# E B)	.	.	guitar
4B	_	.	.	.	.	.	.	.
[8A	_	[8A [c	_	.	.	.	.	.
=91	=91	=91	=91	=91	=91	=91	=91	=91
*	*	*	*	*>A_fadeout	*>A_fadeout	*>A_fadeout	*>A_fadeout	*>A_fadeout
4.A]	_	2A] c]	_	1CM	C:maj (C E G)	newline	203.963	guitar
8r	...	.	.	.	.	.	.	.
2r	.	4.F# A	_	.	.	.	.	.
.	.	[8G# [B	_	.	.	.	.	.
=92	=92	=92	=92	=92	=92	=92	=92	=92
1r	.	1G#] B]	_	1DM	D:maj (D F# A)	.	.	guitar
=93	=93	=93	=93	=93	=93	=93	=93	=93
4r	.	4r	.	1EM	E:maj (E G# B)	.	.	guitar
8B	And	8r	.	.	.	.	.	.
8B	I	8r	.	.	.	.	.	.
8B	could-	8G# B	Ooh	.	.	.	.	.
4B	-n't	8A c	_	.	.	.	.	.
.	.	8B d	_	.	.	.	.	.
[8c	live	[8c [e	_	.	.	.	.	.
=94	=94	=94	=94	=94	=94	=94	=94	=94
4c]	_	4.c] e]	_	4EM	E:maj (E G# B)	.	.	guitar
8d	with-	.	.	4F#mm	F#:min7 (F# A C# E)	.	.	guitar
[8B	-out	[8B [d	_	.	.	.	.	.
8B]	_	4.B] d]	_	2EM	E:maj (G# E B)	.	.	guitar
4.A	you	.	.	.	.	.	.	.
.	.	[8A [c	_	.	.	.	.	.
=95	=95	=95	=95	=95	=95	=95	=95	=95
2r	.	2A] c]	_	1CM	C:maj (C E G)	newline	213.17	guitar
4r	.	4.F# A	_	.	.	.	.	.
8d	to-	.	.	.	.	.	.	.
[8B	-night!	[8G# [B	_	.	.	.	.	.
=96	=96	=96	=96	=96	=96	=96	=96	=96
4.B]	_	1G#] B]	_	1DM	D:maj (D F# A)	.	.	guitar
8r	_	.	.	.	.	.	.	.
2r	.	.	.	.	.	.	.	.
=97	=97	=97	=97	=97	=97	=97	=97	=97
1r	.	1r	.	1EM	E:maj (E G# B)	.	.	guitar
=98	=98	=98	=98	=98	=98	=98	=98	=98
1r	.	1r	.	4EM	E:maj (E G# B)	.	.	guitar
.	.	.	.	4F#mm	F#:min7 (F# A C# E)	.	.	guitar
.	.	.	.	2EM	E:maj (G# E B)	.	.	guitar
*-	*-	*-	*-	*	*	*	*
=98	=98	=98	=98	=98
1CM	C:maj (C E G)	.	.	guitar
1r;	r	.	223.91	r
1r;	r	.	227.265	r
*-	*-	*-	*-	*-
!!!BillboardChartDate: 1986/03/22, 1986/07/05
!!!BillboardPeak: 7, 7
!!!BillboardWeeksOnChart: 27, 27
!!!COC: Level 42
!!!ENC: Nathaniel Condit-Schultz
!!!EST: Awating manual error checking and editing.
!!!OTL: Something About You
!!!RDF**chordsym: original McGill chord annotation + (implied pitch class set, with bass pitch in first position)
!!!RDF**harmony: **recip + pitch class of root + harmonic quality
!!!RDF**leadinstrument: original McGill primary instrumentation annotation
!!!RDF**phrase: newline = linebreak in original McGill transcription
!!!RDF**timestamp: McGill audio timestamp in seconds
!!!RDT: 2017/01/12/
!!!SampleActualRank: 52, 34
!!!SampleID#: 158, 1237
!!!SampleTargetRank: 52, 34
